material/.icons/material/gif.svg

<svg xmlns="http://www.w3.org/2000/svg" viewBox="0 0 24 24"><path d="M11 8h2v8h-2V8M7.67 8H4.33C3.53 8 3 8.67 3 9.33v5.34c0 .66.53 1.33 1.33 1.33h3.34c.8 0 1.33-.67 1.33-1.33V12H7v2H5v-4h4v-.67C9 8.67 8.47 8 7.67 8M21 10V8h-6v8h2v-2h2.5v-2H17v-2h4z"/></svg>

<?xml version="1.0" encoding="UTF-8"?><!DOCTYPE svg PUBLIC "-//W3C//DTD SVG 1.1//EN" "http://www.w3.org/Graphics/SVG/1.1/DTD/svg11.dtd"><svg xmlns="http://www.w3.org/2000/svg" xmlns:xlink="http://www.w3.org/1999/xlink" version="1.1" id="mdi-gif" width="24" height="24" viewBox="0 0 24 24"><path d="M11,8H13V16H11V8M7.67,8H4.33C3.53,8 3,8.67 3,9.33V14.67C3,15.33 3.53,16 4.33,16H7.67C8.47,16 9,15.33 9,14.67V12H7V14H5V10H9V9.33C9,8.67 8.47,8 7.67,8M21,10V8H15V16H17V14H19.5V12H17V10H21Z" /></svg>
